X:1
T:Title
%%score { ( 1 3 ) | 2 }
L:1/8
M:4/4
K:Db
V:1 treble nm="Grand Piano"
V:3 treble 
V:2 bass 
V:1
 z4 z2[Q:1/4=100] [FA]>[FA] | [Fd]2 [Fd]2 [Ac]2 [GB]2 | [FA]2 F4 A>A | [CA]2 [CE]2 [CA]2 [CG]2 | %4
[M:3/4] [DF]6 |[M:1/4] [FA]>[FA] |[M:4/4] [Fd]2 [Fd]2 [Ac]2 [GB]2 | [FA]2 [DF]4 [Fd]>[Fd] | %8
 c2 B2 A2 =G2 |[M:3/4] [CA]6 |[M:1/4] A>A |[M:4/4] A2 e2 B2 [Gc]2 | [Fd]2 [FA]4 [FA]>[FA] | %13
 [GA]2 [Ge]2 [Ad]2 e2 |[M:3/4] f6 |[M:1/4] [Af]>[Ge] |[M:4/4] [Fd]2 [Fd]2 [Ac]2 [GB]2 | %17
 [FA]2 [DF]4 [FA]>[FA] | B2 e2 d2 [Ec]2 |[M:3/4] [Fd]6 |[M:1/4] [FA]2 | %21
[M:4/4] [FA]2 [Fd]2 [Gc]2 [GB]>[Gc] | d6 z2 | [CE]2 [CE]>[DF] [EG]4 | [DF]2 [DF]>[EG] [FA]2 [FA]2 | %25
 [FA]2 [Fd]2 [Gc]2 [GB]>[Gc] | d6 z2 | e2 e>e d2 [Ec]2 |[M:3/4] [Fd]6 |] %29
V:2
 z4 z2 [D,D]>[D,D] | [D,A,]2 [D,A,]2 [D,D]2 [D,D]2 | [D,D]2 [D,A,D]4 [D,F,D]>[D,F,D] | %3
 [A,,E,]2 [A,,A,]2 [A,,A,]2 [A,,A,]2 |[M:3/4] [D,A,]6 |[M:1/4] [D,D]>[D,D] | %6
[M:4/4] [D,A,]2 [D,A,]2 [D,D]2 [D,D]2 | [D,D]2 [D,A,]4 [D,A,]>[D,A,] | %8
 [E,A,E]2 [E,DE]2 [E,CE]2 [E,B,D]2 |[M:3/4] [A,,A,]6 |[M:1/4][K:treble] [A,CG]>[A,CG] | %11
[M:4/4] [A,CG]2 [A,CG]2 [A,CG]2[K:bass] [A,,A,]2 | [D,A,]2 [D,D]4 [D,D]>[D,D] | %13
 [A,C]2 [A,C]2 [F,D]2[K:treble] [A,CA]2 |[M:3/4] [DA]6 |[M:1/4][K:bass] [D,D]>[D,A,] | %16
[M:4/4] [D,A,]2 [D,A,]2 [D,D]2 [D,D]2 | [D,D]2 [D,A,]4 [D,D]>[D,D] | %18
 [G,DG]2 [G,B,G]2 [A,F]2[K:bass] [A,,A,]2 |[M:3/4] [D,A,]6 |[M:1/4] [D,D]2 | %21
[M:4/4] [D,D]2 [D,A,]2 [A,,A,]2 [A,,A,]>[A,,A,] | [D,A,]2 [D,A,]>[D,A,] [D,A,]2 z2 | %23
 [A,,A,]2 [A,,A,]>[A,,A,] [A,,A,]4 | [D,A,]2 [D,A,]>[D,A,] [D,D]2 [D,D]2 | %25
 [D,D]2 [D,A,]2 [A,,A,]2 [A,,A,]>[A,,A,] | [D,A,]2 [D,A,]>[D,A,] [D,A,]2 z2 | %27
 [G,B,G]2 [G,B,G]>[G,B,G] [A,F]2[K:bass] [A,,A,]2 |[M:3/4] [D,A,]6 |] %29
V:3
 x8 | x8 | x8 | x8 |[M:3/4] x6 |[M:1/4] x2 |[M:4/4] x8 | x8 | x8 |[M:3/4] x6 |[M:1/4] x2 | %11
[M:4/4] x8 | x8 | x8 |[M:3/4] x6 |[M:1/4] x2 |[M:4/4] x8 | x8 | x8 |[M:3/4] x6 |[M:1/4] x2 | %21
[M:4/4] x8 | F2 F>F F2 z2 | x8 | x8 | x8 | F2 F>F F2 z2 | x8 |[M:3/4] x6 |] %29

